img/telegram.svg

<svg width="201" height="201" viewBox="0 0 201 201" fill="none" xmlns="http://www.w3.org/2000/svg">
<g filter="url(#filter0_di_4417_3)">
<rect x="19" y="96.3173" width="115" height="115" rx="15" transform="rotate(-45 19 96.3173)" fill="url(#paint0_linear_4417_3)"/>
</g>
<path fill-rule="evenodd" clip-rule="evenodd" d="M121.367 73.0684C120.768 73.1918 120.266 73.3758 117.718 74.4045C115.102 75.461 109.05 77.9203 108.43 78.1787C108.193 78.2777 106.775 78.8561 105.279 79.4641C102.597 80.5541 85.3369 87.5862 80.3678 89.6134C78.963 90.1864 77.3659 90.8356 76.8186 91.0558C75.2171 91.7003 74.595 92.0538 73.9795 92.6689C72.713 93.9345 72.6706 95.8115 73.876 97.2469C74.2251 97.6624 75.032 98.2637 75.6037 98.5343C75.834 98.6433 78.2913 99.4712 81.0644 100.374C83.8375 101.277 86.1241 102.036 86.1458 102.061C86.1675 102.086 86.6413 103.551 87.1987 105.317C90.0013 114.2 90.1633 114.675 90.662 115.477C90.9729 115.977 91.4916 116.481 91.9059 116.684C92.4365 116.944 93.1999 117.065 93.7699 116.98C94.3427 116.894 94.8693 116.706 95.2111 116.466C95.3553 116.365 96.0376 115.784 96.7274 115.174C99.8917 112.376 101.223 111.227 101.292 111.233C101.333 111.237 102.605 112.16 104.119 113.284C111.902 119.066 111.226 118.603 112.286 118.885C112.872 119.041 114.329 119.037 114.932 118.878C115.943 118.612 116.811 118.048 117.43 117.254C118.127 116.361 118.081 116.522 119.145 111.254C119.676 108.625 120.213 105.968 120.338 105.35C120.583 104.141 122.136 96.4482 122.561 94.3336C122.704 93.627 123.345 90.4475 123.987 87.2679C124.63 84.0884 125.331 80.614 125.547 79.547C125.762 78.4801 125.958 77.3961 125.981 77.1383C126.188 74.8784 124.652 73.0903 122.428 73.0041C122.046 72.9892 121.629 73.0145 121.367 73.0684ZM121.859 77.1995C121.845 77.2613 121.775 77.6153 121.703 77.9863C121.632 78.3572 121.167 80.6696 120.671 83.1249C119.447 89.1813 115.656 107.942 114.966 111.355C114.66 112.874 114.388 114.233 114.363 114.374C114.304 114.706 114.167 114.964 114.007 115.047C113.813 115.147 113.46 115.126 113.204 114.998C113.027 114.91 108.229 111.38 104.019 108.24C101.169 106.115 101.064 106.042 100.949 106.131C100.888 106.178 99.3614 107.517 97.5579 109.107C94.2219 112.048 93.7688 112.442 93.7688 112.403C93.7688 112.373 95.2165 103.432 95.2604 103.192C95.2893 103.034 95.6349 102.69 96.9687 101.49C97.8883 100.663 99.1202 99.5525 99.7063 99.0226C100.292 98.4927 102.488 96.514 104.585 94.6254C106.681 92.7369 108.576 91.0287 108.795 90.8294C109.014 90.6301 109.895 89.8359 110.752 89.0646C113.789 86.3331 114.109 86.0427 114.755 85.4381C115.482 84.7581 115.599 84.5912 115.547 84.3121C115.468 83.8869 115.148 83.7909 114.551 84.0133C114.377 84.078 113.549 84.5448 112.709 85.0506C111.87 85.5565 109.362 87.0607 107.137 88.3934C104.911 89.726 102.537 91.1479 101.862 91.5532C100.674 92.267 96.0752 95.0214 91.6381 97.6777C90.2633 98.5007 89.4408 98.9564 89.3825 98.9274C89.332 98.9023 86.6786 98.0347 83.4859 96.9994C80.2932 95.9641 77.6575 95.0972 77.6288 95.073C77.6001 95.0487 80.2123 93.9557 83.4337 92.6439C88.9021 90.4172 93.4955 88.5457 103.753 84.3653C112.142 80.9464 113.382 80.4422 117.552 78.7538C119.887 77.8083 121.817 77.0466 121.841 77.061C121.865 77.0753 121.874 77.1377 121.859 77.1995Z" fill="white"/>
<defs>
<filter id="filter0_di_4417_3" x="0.213196" y="0.213135" width="200.208" height="200.208" filterUnits="userSpaceOnUse" color-interpolation-filters="sRGB">
<feFlood flood-opacity="0" result="BackgroundImageFix"/>
<feColorMatrix in="SourceAlpha" type="matrix" values="0 0 0 0 0 0 0 0 0 0 0 0 0 0 0 0 0 0 127 0" result="hardAlpha"/>
<feOffset dy="4"/>
<feGaussianBlur stdDeviation="12.5"/>
<feComposite in2="hardAlpha" operator="out"/>
<feColorMatrix type="matrix" values="0 0 0 0 0.0392157 0 0 0 0 0.65098 0 0 0 0 0.996078 0 0 0 0.48 0"/>
<feBlend mode="normal" in2="BackgroundImageFix" result="effect1_dropShadow_4417_3"/>
<feBlend mode="normal" in="SourceGraphic" in2="effect1_dropShadow_4417_3" result="shape"/>
<feColorMatrix in="SourceAlpha" type="matrix" values="0 0 0 0 0 0 0 0 0 0 0 0 0 0 0 0 0 0 127 0" result="hardAlpha"/>
<feOffset/>
<feGaussianBlur stdDeviation="12.5"/>
<feComposite in2="hardAlpha" operator="arithmetic" k2="-1" k3="1"/>
<feColorMatrix type="matrix" values="0 0 0 0 0 0 0 0 0 0.197167 0 0 0 0 0.704167 0 0 0 0.3 0"/>
<feBlend mode="normal" in2="shape" result="effect2_innerShadow_4417_3"/>
</filter>
<linearGradient id="paint0_linear_4417_3" x1="11.4766" y1="-172.016" x2="315.545" y2="-101.769" gradientUnits="userSpaceOnUse">
<stop stop-color="#0AA6FE"/>
<stop offset="1" stop-color="#05FFFF"/>
</linearGradient>
</defs>
</svg>

<svg width="201" height="201" fill="none" xmlns="http://www.w3.org/2000/svg"><g filter="url(#a)"><rect x="19" y="96.317" width="115" height="115" rx="15" transform="rotate(-45 19 96.317)" fill="url(#b)"/></g><path fill-rule="evenodd" clip-rule="evenodd" d="M121.367 73.068c-.599.124-1.101.308-3.649 1.337a2714.287 2714.287 0 0 0-9.288 3.774 48075.178 48075.178 0 0 0-28.062 11.435c-1.405.572-3.002 1.222-3.55 1.442-1.6.644-2.223.998-2.838 1.613-1.267 1.266-1.31 3.142-.104 4.578.35.415 1.156 1.017 1.728 1.287.23.11 2.687.937 5.46 1.84 2.774.903 5.06 1.662 5.082 1.687.022.025.495 1.49 1.053 3.256 2.802 8.883 2.964 9.358 3.463 10.16.31.5.83 1.004 1.244 1.207.53.26 1.294.381 1.864.296.573-.086 1.1-.274 1.441-.514.144-.101.827-.682 1.516-1.292 3.165-2.798 4.496-3.947 4.565-3.941.041.004 1.313.927 2.827 2.051 7.783 5.782 7.107 5.319 8.167 5.601.586.156 2.043.152 2.646-.007a4.631 4.631 0 0 0 2.498-1.624c.697-.893.651-.732 1.715-6l1.193-5.904c.245-1.209 1.798-8.902 2.223-11.016l1.426-7.066 1.56-7.721c.215-1.067.411-2.15.434-2.409.207-2.26-1.329-4.048-3.553-4.134a4.941 4.941 0 0 0-1.061.064Zm.492 4.132a1327.43 1327.43 0 0 1-1.188 5.925l-5.705 28.23a493.234 493.234 0 0 0-.603 3.019c-.059.332-.196.59-.356.673-.194.1-.547.079-.803-.049-.177-.088-4.975-3.618-9.185-6.758-2.85-2.125-2.955-2.198-3.07-2.109-.061.047-1.588 1.386-3.391 2.976-3.336 2.941-3.79 3.335-3.79 3.296 0-.03 1.448-8.971 1.492-9.211.03-.158.375-.502 1.709-1.702.92-.827 2.151-1.938 2.737-2.467.586-.53 2.782-2.509 4.879-4.398 2.096-1.888 3.991-3.596 4.21-3.796.219-.199 1.1-.993 1.957-1.764 3.037-2.732 3.357-3.022 4.003-3.627.727-.68.844-.847.792-1.126-.079-.425-.399-.521-.996-.299-.174.065-1.002.532-1.842 1.038-.839.505-3.347 2.01-5.572 3.342l-5.275 3.16c-1.188.714-5.787 3.468-10.224 6.125-1.375.823-2.197 1.278-2.256 1.25a659.83 659.83 0 0 0-5.896-1.929c-3.193-1.035-5.829-1.902-5.857-1.926-.029-.024 2.583-1.117 5.805-2.43 5.468-2.226 10.062-4.097 20.319-8.278 8.389-3.419 9.629-3.923 13.799-5.611 2.335-.946 4.265-1.707 4.289-1.693.024.014.033.077.018.138Z" fill="#fff"/><defs><linearGradient id="b" x1="11.477" y1="-172.016" x2="315.545" y2="-101.769" gradientUnits="userSpaceOnUse"><stop stop-color="#0AA6FE"/><stop offset="1" stop-color="#05FFFF"/></linearGradient><filter id="a" x=".213" y=".213" width="200.208" height="200.208" filterUnits="userSpaceOnUse" color-interpolation-filters="sRGB"><feFlood flood-opacity="0" result="BackgroundImageFix"/><feColorMatrix in="SourceAlpha" values="0 0 0 0 0 0 0 0 0 0 0 0 0 0 0 0 0 0 127 0" result="hardAlpha"/><feOffset dy="4"/><feGaussianBlur stdDeviation="12.5"/><feComposite in2="hardAlpha" operator="out"/><feColorMatrix values="0 0 0 0 0.0392157 0 0 0 0 0.65098 0 0 0 0 0.996078 0 0 0 0.48 0"/><feBlend in2="BackgroundImageFix" result="effect1_dropShadow_4417_3"/><feBlend in="SourceGraphic" in2="effect1_dropShadow_4417_3" result="shape"/><feColorMatrix in="SourceAlpha" values="0 0 0 0 0 0 0 0 0 0 0 0 0 0 0 0 0 0 127 0" result="hardAlpha"/><feOffset/><feGaussianBlur stdDeviation="12.5"/><feComposite in2="hardAlpha" operator="arithmetic" k2="-1" k3="1"/><feColorMatrix values="0 0 0 0 0 0 0 0 0 0.197167 0 0 0 0 0.704167 0 0 0 0.3 0"/><feBlend in2="shape" result="effect2_innerShadow_4417_3"/></filter></defs></svg>
